<?xml version="1.0" encoding="UTF-8"?>
<map version="1.11" tiledversion="1.11.2" orientation="orthogonal" renderorder="right-down" width="56" height="40" tilewidth="16" tileheight="16" infinite="0" nextlayerid="7" nextobjectid="3">
 <editorsettings>
  <export target="forest.json" format="json"/>
 </editorsettings>
 <tileset firstgid="1" source="TilesetFloor.tsx"/>
 <tileset firstgid="573" source="TilesetElement.tsx"/>
 <tileset firstgid="813" source="TilesetNature.tsx"/>
 <tileset firstgid="1317" source="TilesetHouse.tsx"/>
 <tileset firstgid="2076" source="TilesetWater.tsx"/>
 <layer id="1" name="Ground" width="56" height="40">
  <data encoding="csv">
276,277,278,279,280,280,280,280,280,280,2143,2143,2143,276,276,276,276,277,276,277,278,279,280,280,280,280,280,280,276,277,278,279,280,280,278,279,276,277,278,279,280,280,276,277,278,279,280,280,276,277,278,276,277,278,279,280,
276,277,278,279,276,276,277,278,279,280,2143,2143,2143,2143,276,276,277,278,276,277,278,276,277,278,279,280,280,280,276,277,278,279,280,280,278,279,276,277,278,279,280,277,278,279,280,280,279,276,277,278,279,280,277,278,279,280,
276,276,276,276,276,276,277,278,279,280,276,2143,2143,2143,2143,279,280,280,276,276,276,276,277,278,279,280,276,277,276,277,278,279,280,280,279,280,276,277,278,279,280,279,280,280,277,278,279,276,277,278,279,280,277,278,279,280,
276,277,278,279,280,280,280,280,276,276,277,2143,2143,2143,2143,2143,278,276,276,277,276,277,278,279,280,276,277,278,276,277,278,279,280,279,280,277,278,279,280,280,280,280,280,276,277,278,279,276,277,278,279,280,277,278,279,280,
276,277,278,279,280,276,277,276,277,278,279,280,277,2143,2143,2143,2143,276,277,278,276,277,278,279,280,276,277,278,276,277,278,279,280,279,280,277,278,279,280,280,280,276,276,276,277,278,279,276,277,278,279,280,277,278,279,280,
276,276,277,278,279,280,276,276,277,278,279,280,276,2143,2143,2143,2143,2143,277,278,276,277,278,279,280,276,277,278,279,276,277,278,279,280,280,280,280,280,279,276,277,278,279,280,277,278,279,276,276,277,278,279,280,277,278,279,
276,276,276,276,276,276,276,276,277,278,279,280,277,278,2143,2143,2143,2143,2143,280,276,277,278,276,277,276,277,278,279,276,277,278,279,280,280,276,277,278,279,276,277,278,279,280,277,278,279,276,276,277,278,279,280,277,278,279,
277,278,279,280,279,276,276,277,278,279,280,277,278,279,280,2143,2143,2143,2143,2143,276,277,278,276,277,276,277,278,279,276,166,167,168,280,280,276,277,278,276,277,278,276,277,278,279,280,276,276,276,277,278,279,280,277,278,279,
277,278,279,280,279,276,276,277,278,279,280,278,279,280,276,276,2143,2143,2143,2143,2143,2143,2143,2143,2143,2143,2143,2143,2143,276,188,189,190,280,280,276,277,278,276,277,278,276,277,278,279,280,276,276,276,277,278,279,280,277,278,279,
277,278,279,280,279,276,276,277,278,279,280,280,280,279,276,276,277,2143,2143,2143,2143,2143,2143,2143,2143,2143,2143,2143,2143,276,210,211,212,280,278,276,277,276,277,278,276,276,277,278,279,280,276,276,277,278,279,280,280,277,278,279,
278,279,280,279,280,276,277,278,279,280,276,277,278,279,276,276,277,278,279,2143,2143,2143,2143,2143,2102,2103,2143,2143,2143,276,166,167,168,169,170,171,172,173,277,276,277,278,276,277,278,279,280,276,277,278,279,280,276,277,278,279,
278,279,280,279,280,276,277,278,279,280,278,279,276,277,276,276,277,278,279,280,2143,2143,2143,2143,2143,2143,2143,2143,2143,276,188,189,190,191,192,193,194,195,276,277,278,276,277,278,279,280,280,277,278,279,280,280,276,277,278,279,
278,279,280,279,280,276,277,278,279,280,276,276,277,278,276,276,276,277,278,279,280,278,2143,2143,2143,2143,2143,2143,2143,276,210,211,212,213,214,215,216,217,277,278,279,276,277,278,279,280,280,279,280,280,279,280,276,277,278,279,
278,279,280,280,280,276,277,278,279,280,276,277,278,276,277,278,279,280,280,276,277,278,2143,2143,2143,2143,2143,2143,2143,276,166,167,168,169,170,171,172,173,278,279,280,276,277,278,279,280,280,280,276,277,278,279,276,277,278,279,
277,278,279,280,280,276,277,278,279,276,277,278,279,276,277,278,279,276,277,278,166,167,168,277,2143,2143,2143,2143,2143,280,188,189,190,191,192,193,194,195,279,280,276,277,278,279,280,280,280,280,276,277,278,279,276,277,278,279,
277,278,279,280,280,276,277,278,276,277,278,279,276,277,278,276,277,276,277,278,188,189,190,277,2143,2143,2143,2143,2143,280,210,211,212,213,214,215,216,217,280,279,276,277,278,279,280,279,280,276,277,278,279,276,276,277,278,279,
277,278,279,280,280,276,277,276,277,278,279,276,276,277,278,276,277,276,277,278,210,211,212,277,2143,2143,2143,2143,2143,280,232,233,234,235,236,237,238,239,276,276,277,278,279,280,280,279,276,276,277,278,279,276,276,277,278,279,
276,277,278,279,276,277,276,277,278,279,276,276,277,276,277,276,276,276,277,278,279,280,276,277,276,277,278,279,280,279,188,189,190,191,192,193,194,195,278,276,277,278,279,280,280,279,276,276,277,276,276,276,277,278,279,280,
276,277,278,279,276,276,277,276,277,278,279,280,278,276,276,277,276,276,277,278,279,280,276,277,276,277,278,279,280,279,210,211,212,213,214,215,216,217,279,276,276,276,276,276,276,276,276,276,276,276,277,276,277,278,279,280,
277,278,279,280,276,277,278,276,277,278,279,280,279,276,276,277,276,276,277,278,279,280,276,277,276,277,278,279,280,279,232,233,234,235,236,237,238,239,279,276,277,278,279,280,278,276,276,277,276,276,276,276,277,278,279,280,
277,278,276,276,277,278,279,276,277,278,279,280,276,277,276,277,276,276,276,277,166,167,168,169,170,171,172,173,280,280,276,277,278,166,167,168,277,278,279,280,280,276,277,278,276,277,276,276,277,276,276,276,277,278,279,280,
276,276,277,278,279,280,279,276,277,278,279,280,276,277,276,277,276,276,276,277,188,189,190,191,192,193,194,195,280,280,276,277,278,188,189,190,277,278,279,280,276,276,277,278,276,277,276,276,277,276,276,276,276,277,278,279,
277,278,279,280,278,279,280,276,277,278,279,280,280,278,276,277,276,276,276,277,210,211,212,213,214,215,216,217,280,280,276,277,278,210,211,212,277,278,279,280,276,276,277,276,277,278,276,276,277,276,276,277,278,279,280,280,
276,277,278,279,280,276,277,276,277,278,279,280,280,278,276,277,276,276,276,277,232,233,234,235,236,237,238,239,276,277,278,279,280,279,280,276,277,278,279,276,277,276,277,276,277,276,276,277,278,276,276,277,278,279,280,280,
277,278,279,280,280,277,278,276,277,278,279,280,280,278,276,277,276,276,276,277,278,276,277,276,277,278,279,280,276,277,278,279,280,279,276,277,278,279,280,276,276,277,276,277,278,276,276,277,278,276,276,277,278,279,280,280,
279,280,278,279,280,277,276,277,278,279,280,280,280,279,276,276,277,276,276,277,278,276,277,276,277,278,279,280,276,277,278,279,280,279,276,277,278,279,276,277,276,277,276,277,278,276,277,278,279,276,276,277,278,279,280,280,
276,277,278,279,280,277,276,277,278,279,280,280,280,279,276,276,277,276,276,277,278,276,277,276,277,278,279,280,276,276,277,278,279,280,276,277,278,279,276,277,276,277,278,276,276,276,277,278,279,276,276,277,278,279,280,280,
276,277,278,279,280,276,277,278,279,280,280,280,280,279,276,277,278,276,276,277,166,167,168,276,276,277,278,279,276,276,277,278,279,280,276,277,278,276,277,276,277,278,279,280,278,276,277,278,276,276,277,278,279,280,279,280,
276,277,278,279,280,276,277,278,279,280,280,280,280,280,276,277,278,276,276,277,188,189,190,277,276,277,278,279,276,276,277,278,279,280,276,277,278,276,277,276,277,278,279,280,278,276,277,278,276,277,276,276,277,278,279,280,
276,277,278,279,276,277,278,279,280,279,280,276,276,276,277,278,279,276,276,277,210,211,212,277,278,276,277,278,276,276,276,276,276,276,276,276,276,276,276,276,277,278,279,280,279,276,277,278,276,277,276,276,277,278,279,280,
276,277,278,279,276,277,278,279,280,278,276,277,276,276,277,278,279,276,276,277,276,276,277,278,279,276,277,278,276,277,278,166,167,168,169,170,171,172,173,276,276,276,277,278,279,276,277,278,276,277,276,276,277,278,279,280,
276,277,278,279,276,277,278,279,280,276,277,278,279,276,277,278,279,276,276,277,276,276,277,278,279,276,276,277,276,277,278,188,189,190,191,192,193,194,195,276,276,277,278,279,280,276,277,276,276,277,276,276,277,278,279,280,
276,277,278,279,276,277,278,279,280,276,277,278,279,276,277,278,279,276,276,277,276,276,277,278,279,276,277,278,276,277,278,210,211,212,213,214,215,216,217,276,276,277,278,279,280,276,277,276,277,276,276,276,277,278,279,280,
276,277,278,279,276,277,278,279,276,277,278,279,280,276,277,278,279,276,277,276,276,276,277,278,279,276,277,278,276,277,278,232,233,234,235,236,237,238,239,276,277,278,279,280,276,276,277,276,277,276,277,276,277,278,279,280,
276,277,278,279,276,277,278,279,276,277,278,279,280,276,277,278,279,276,277,276,276,277,278,279,276,277,278,279,276,277,278,276,277,278,276,276,277,278,276,276,277,278,279,280,277,276,277,276,277,276,277,276,277,278,279,280,
276,277,278,279,276,277,278,276,277,278,279,280,276,277,278,279,276,276,277,276,276,277,278,276,277,278,279,280,276,277,278,276,277,278,276,276,277,278,276,277,278,279,280,276,277,276,277,276,277,276,276,277,278,279,280,279,
276,277,278,279,276,277,278,276,277,278,279,280,276,277,278,276,277,276,277,276,277,278,276,277,278,279,280,276,276,277,276,277,278,279,276,276,277,278,276,277,278,279,276,277,278,276,276,277,278,279,276,277,278,279,280,280,
276,277,278,279,276,277,276,277,278,279,280,276,277,278,276,277,278,276,277,276,277,276,276,276,276,276,276,276,276,276,277,278,279,280,276,277,278,279,276,277,278,276,277,278,279,276,276,277,278,279,276,277,278,279,280,280,
276,277,278,279,276,277,276,277,278,279,276,277,278,276,277,278,279,276,277,276,277,278,276,276,276,277,278,279,276,277,278,279,280,276,276,277,278,279,276,277,278,276,277,278,279,276,276,277,278,279,276,277,278,279,280,279,
276,277,278,279,276,276,277,278,279,276,277,278,276,277,278,279,280,276,277,276,276,276,277,278,279,280,280,280,280,280,280,280,280,280,280,280,280,276,277,278,276,277,278,279,280,276,276,277,278,279,276,277,278,279,280,280
</data>
 </layer>
 <layer id="2" name="Decoration" width="56" height="40">
  <data encoding="csv">
0,0,0,0,0,0,0,0,0,0,0,0,0,0,0,0,0,0,0,0,0,0,0,0,0,0,0,0,0,0,0,0,0,0,0,0,0,0,0,0,0,0,0,0,0,0,0,0,0,0,0,0,0,0,0,0,
0,0,0,0,0,0,0,0,0,0,0,0,0,0,0,0,0,0,0,0,0,0,0,0,0,0,0,1340,1341,1342,0,0,0,0,0,0,0,0,0,0,0,0,0,0,0,0,0,0,0,0,0,0,0,0,0,0,
0,0,0,0,0,0,0,0,0,0,0,0,0,0,0,0,0,0,0,0,0,0,0,0,0,0,0,1373,1374,1375,0,0,0,0,0,0,0,0,0,0,0,0,0,0,0,0,0,0,0,0,0,0,0,0,0,0,
0,0,0,0,0,0,0,0,0,0,0,0,0,0,0,0,0,0,0,0,0,0,0,0,0,0,0,1406,1407,1408,0,0,0,0,0,0,0,0,0,0,0,0,0,0,0,0,0,0,0,0,0,0,0,0,0,0,
0,0,0,0,0,0,0,0,0,0,0,0,0,0,0,0,0,0,0,0,0,0,0,0,0,0,0,0,0,0,0,0,0,0,0,0,0,0,0,0,0,0,0,0,0,0,0,0,0,0,0,0,0,0,0,0,
0,0,0,0,0,0,0,0,0,0,0,0,0,0,0,0,0,0,0,0,0,0,0,0,0,0,0,0,0,0,0,0,0,0,0,0,0,0,0,0,0,0,0,0,0,0,0,0,0,0,1531,1532,1533,0,0,0,
0,0,0,0,0,0,0,0,0,0,0,0,0,0,0,0,0,0,0,0,0,0,0,0,0,0,0,0,0,0,0,0,0,0,0,0,0,0,0,0,0,0,0,0,0,0,0,0,0,0,1564,1565,1566,0,0,0,
0,0,0,0,0,0,0,0,0,0,0,0,0,0,0,0,0,0,0,0,0,0,0,0,0,0,0,0,0,0,0,0,0,0,1325,1326,1327,1328,0,0,0,0,0,0,0,0,0,0,0,0,1597,1598,1599,0,0,0,
0,0,0,0,0,0,0,0,0,0,0,0,0,0,0,0,0,0,0,0,0,0,0,0,0,0,0,0,0,0,0,0,0,0,1358,1359,1360,1361,0,0,0,0,0,0,0,0,0,0,0,0,1630,1631,1632,0,0,0,
0,0,0,0,0,0,0,0,0,0,0,0,0,0,0,0,0,0,0,0,0,0,0,0,0,0,0,0,0,0,0,0,0,0,1391,1392,1393,1394,0,0,0,0,0,0,0,0,0,0,0,0,1663,1664,1665,0,0,0,
0,0,0,0,0,0,0,0,0,0,0,0,0,0,0,0,0,0,0,0,0,0,0,0,0,0,0,0,0,0,0,0,0,0,0,0,0,0,0,0,0,0,0,0,0,0,0,0,0,0,0,0,0,0,0,0,
0,0,0,0,0,0,0,0,0,0,0,0,0,0,0,0,0,0,0,0,0,0,0,0,0,0,0,0,0,0,0,0,0,0,0,0,0,0,0,0,0,0,0,0,0,0,0,0,0,0,0,0,0,0,0,0,
0,0,0,0,0,0,0,0,0,0,0,0,0,0,0,0,0,0,0,0,0,0,0,0,0,0,0,0,0,0,0,0,0,0,0,0,0,0,0,0,0,0,0,0,0,0,0,0,0,0,0,0,0,0,0,0,
0,0,0,0,0,0,0,0,0,0,0,0,0,0,0,0,0,0,0,0,0,0,0,0,0,0,0,0,0,0,0,0,0,0,0,0,0,0,0,0,0,0,0,0,0,0,0,0,0,0,0,0,0,0,0,0,
0,0,0,0,0,0,0,0,0,0,0,0,0,0,0,0,0,0,0,0,0,0,0,0,0,0,0,0,0,0,0,0,0,0,0,0,0,0,0,0,0,0,0,0,0,0,0,0,0,0,0,0,0,0,0,0,
0,0,0,0,0,0,0,0,0,1355,0,0,0,0,0,0,0,0,0,0,0,0,0,0,0,0,0,0,0,0,0,0,0,0,0,0,0,0,0,0,0,0,0,0,0,0,0,0,0,0,0,0,0,0,0,0,
0,0,0,0,0,0,0,0,0,0,0,0,0,0,0,0,0,0,0,0,0,0,0,0,0,0,0,0,0,0,0,0,0,0,0,0,0,0,0,0,0,0,0,0,0,0,0,0,0,0,0,0,0,0,0,0,
0,0,0,0,0,0,1336,1337,1338,1339,1325,1326,1327,1328,1336,1337,1338,1339,1329,1330,1331,1332,0,0,0,0,0,0,0,0,0,0,0,0,0,0,0,0,0,0,0,0,0,0,1336,1337,1338,1339,0,0,0,0,0,0,0,0,
0,0,0,0,0,0,1369,1370,1371,1372,1358,1359,1360,1361,1369,1370,1371,1372,1362,1363,1364,1365,0,0,0,0,0,0,0,0,0,0,0,0,0,0,0,0,0,0,0,0,0,0,1369,1370,1371,1372,0,0,0,0,0,0,0,0,
0,0,0,0,0,0,1402,1403,1404,1405,1391,1392,1393,1394,1402,1403,1404,1405,1395,1396,1397,1398,0,0,0,0,0,0,0,0,0,0,0,0,0,0,0,0,0,0,0,0,0,0,1402,1403,1404,1405,0,0,0,0,0,0,0,0,
0,0,0,0,0,0,0,0,0,0,0,0,0,0,0,0,0,0,0,0,0,0,0,0,0,0,0,0,0,0,0,0,0,0,0,0,0,0,0,0,0,0,0,0,0,0,0,0,0,0,0,0,0,0,0,0,
0,0,0,0,0,0,0,0,0,0,0,0,0,0,0,0,0,0,0,0,0,0,0,0,0,0,0,0,0,0,0,0,0,0,0,0,0,0,0,0,0,0,0,0,0,0,0,0,0,0,0,0,0,0,0,0,
0,0,0,0,0,0,0,0,0,0,0,0,0,0,0,0,0,0,0,0,0,0,0,0,0,0,0,0,0,0,0,0,0,0,0,0,0,0,0,0,0,0,0,0,0,0,0,0,0,0,0,0,0,0,0,0,
0,0,0,0,0,0,0,0,0,0,0,0,0,0,0,0,0,0,0,0,0,0,0,0,0,0,0,0,0,0,0,0,0,0,0,0,0,0,0,0,0,0,0,0,0,0,1325,1326,1327,1328,0,0,0,0,0,0,
0,0,0,0,0,0,0,0,0,0,0,0,0,0,0,0,0,0,0,0,0,0,0,0,0,0,0,0,0,0,0,0,0,0,0,0,0,0,0,0,0,0,0,0,0,0,1358,1359,1360,1361,0,0,0,0,0,0,
0,0,0,0,0,0,0,0,0,0,0,0,0,0,0,0,0,0,0,0,0,0,0,0,0,0,0,0,621,622,0,0,0,0,0,0,0,0,0,0,0,0,0,0,0,0,1391,1392,1393,1394,0,0,0,0,0,0,
0,0,0,0,0,0,0,0,0,0,0,0,0,0,0,0,0,0,0,0,0,0,0,0,0,0,0,0,637,638,0,0,0,0,0,0,0,0,0,0,0,0,0,0,0,0,0,0,0,0,0,0,0,0,0,0,
0,0,0,0,0,0,0,0,0,0,0,0,0,0,0,0,0,0,0,0,0,0,0,0,0,0,0,0,0,0,0,0,0,0,1325,1326,1327,1328,1328,0,0,0,0,0,0,0,0,0,0,0,0,0,0,0,0,0,
0,0,0,0,0,0,0,0,0,0,0,0,0,0,0,0,0,0,0,0,0,0,0,0,0,0,0,0,0,0,0,0,0,0,1358,1359,1360,1361,1361,0,0,0,0,0,0,0,0,0,0,0,0,0,0,0,0,0,
0,0,0,0,0,0,0,0,0,0,0,0,0,0,0,0,0,0,0,0,0,0,0,0,0,0,0,0,0,0,0,0,0,0,1391,1392,1393,1394,1394,0,0,0,0,0,0,0,0,0,0,0,0,0,0,0,0,0,
0,0,0,0,0,0,0,0,0,0,0,0,0,0,0,0,0,0,0,0,0,0,0,0,0,0,0,0,0,0,0,0,0,0,0,0,0,0,0,0,0,0,0,0,0,0,0,0,0,0,0,0,0,0,0,0,
0,0,0,0,0,0,0,0,0,0,1329,1330,1331,1332,0,0,0,0,0,0,0,0,0,0,0,0,0,0,0,0,0,0,0,0,0,0,0,0,0,0,0,0,0,0,0,0,0,0,0,0,0,0,0,0,0,0,
0,0,0,0,0,0,0,0,0,0,1362,1363,1364,1365,0,0,0,0,0,0,0,0,0,0,0,0,0,0,0,0,0,0,0,0,0,0,0,0,0,0,0,0,0,0,0,0,0,0,0,0,0,0,0,0,0,0,
0,0,0,0,0,0,0,0,0,0,1395,1396,1397,1398,0,0,0,0,0,0,0,0,0,0,0,0,0,0,0,0,0,0,0,0,0,0,0,0,0,0,0,0,0,0,0,0,0,0,0,0,0,0,0,0,0,0,
0,0,0,0,0,0,0,0,0,0,0,0,0,0,0,0,0,0,0,0,0,0,0,0,0,0,0,0,0,0,0,0,0,0,0,0,0,0,0,0,0,0,0,0,0,0,0,0,0,0,0,0,0,0,0,0,
0,0,0,0,0,0,0,0,0,0,0,0,0,0,0,0,0,0,0,0,0,0,0,0,0,0,0,0,0,0,0,0,0,0,0,0,0,0,0,0,0,0,0,0,0,0,0,0,0,0,0,0,0,0,0,0,
0,0,0,0,0,0,0,0,0,0,0,0,0,0,0,0,0,0,0,0,0,0,0,0,0,0,0,0,0,0,0,0,0,0,0,0,0,0,0,0,0,0,0,0,0,0,0,0,0,0,0,0,0,0,0,0,
0,0,0,0,0,0,0,0,0,0,0,0,0,0,0,0,0,0,0,0,0,0,0,0,0,0,0,0,0,0,0,0,0,0,0,0,0,0,0,0,0,0,0,0,0,0,0,0,0,0,0,0,0,0,0,0,
0,0,0,0,0,0,0,0,0,0,0,0,0,0,0,0,0,0,0,0,0,0,0,0,0,0,0,0,0,0,0,0,0,0,0,0,0,0,0,0,0,0,0,0,0,0,0,0,0,0,0,0,0,0,0,0,
0,0,0,0,0,0,0,0,0,0,0,0,0,0,0,0,0,0,0,0,0,0,0,0,0,0,0,0,0,0,0,0,0,0,0,0,0,0,0,0,0,0,0,0,0,0,0,0,0,0,0,0,0,0,0,0
</data>
 </layer>
 <layer id="3" name="Above" width="56" height="40">
  <data encoding="csv">
0,0,0,0,0,0,0,0,0,0,0,0,0,0,0,0,0,0,0,0,0,0,0,0,0,0,0,0,0,0,0,0,0,0,0,0,0,0,0,0,0,0,0,0,0,0,0,0,0,0,0,0,0,0,0,0,
0,0,0,0,0,0,0,0,0,0,0,0,0,0,0,0,0,0,0,0,0,0,0,0,0,0,0,0,0,0,0,0,0,0,0,0,0,0,0,0,0,0,0,0,0,0,0,0,0,0,0,0,0,0,0,0,
0,0,0,0,0,0,0,0,0,0,0,0,0,0,0,0,0,0,0,0,0,0,0,0,0,0,0,0,0,0,0,0,0,0,0,0,0,0,0,0,0,0,0,0,0,0,0,0,0,0,0,0,0,0,0,0,
0,0,0,0,0,0,0,0,0,0,0,0,0,0,0,0,0,0,0,0,0,0,0,0,0,0,0,0,0,0,0,0,0,0,0,0,0,0,0,0,0,0,0,0,0,0,0,0,0,0,0,0,0,0,0,0,
0,0,0,0,0,0,0,0,0,0,0,0,0,0,0,0,0,0,0,0,0,0,0,0,0,0,0,0,0,0,0,0,0,0,0,0,0,0,0,0,0,0,0,0,0,0,0,0,0,0,0,0,0,0,0,0,
0,0,0,0,0,0,0,0,0,0,0,0,0,0,0,0,0,0,0,0,0,0,0,0,0,0,0,0,0,0,0,0,0,0,0,0,0,0,0,0,0,0,0,0,0,0,0,0,0,0,0,0,0,0,0,0,
0,0,0,0,0,0,0,0,0,0,0,0,0,0,0,0,0,0,0,0,0,0,0,0,0,0,0,0,0,0,0,0,0,0,0,0,0,0,0,0,0,0,0,0,0,0,0,0,0,0,0,0,0,0,0,0,
0,0,0,0,0,0,0,0,0,0,0,0,0,0,0,0,0,0,0,0,0,0,0,0,0,0,0,0,0,0,0,0,0,0,0,0,0,0,0,0,0,0,0,0,0,0,0,0,0,0,0,0,0,0,0,0,
0,0,0,0,0,0,0,0,0,0,0,0,0,0,0,0,0,0,0,0,0,0,0,0,0,0,0,0,0,0,0,0,0,0,0,0,0,0,0,0,0,0,0,0,0,0,0,0,0,0,0,0,0,0,0,0,
0,0,0,0,0,0,0,0,0,0,0,0,0,0,0,0,0,0,0,0,0,0,0,0,0,0,0,0,0,0,0,0,0,0,0,0,0,0,0,0,0,0,0,0,0,0,0,0,0,0,0,0,0,0,0,0,
0,0,0,0,0,0,0,0,0,0,0,0,0,0,0,0,0,0,0,0,0,0,0,0,0,0,0,0,0,0,0,0,0,0,0,0,0,0,0,0,0,0,0,0,0,0,0,0,0,0,0,0,0,0,0,0,
0,0,0,0,0,0,0,0,0,0,0,0,0,0,0,0,0,0,0,0,0,0,0,0,0,0,0,0,0,0,0,0,0,0,0,0,0,0,0,0,0,0,0,0,0,0,0,0,0,0,0,0,0,0,0,0,
0,0,0,0,0,0,0,0,0,0,0,0,0,0,0,0,0,0,0,0,0,0,0,0,0,0,0,0,0,0,0,0,0,0,0,0,0,0,0,0,0,0,0,0,0,0,0,0,0,0,0,0,0,0,0,0,
0,0,0,0,0,0,0,0,0,0,0,0,0,0,0,0,0,0,0,0,0,0,0,0,0,0,0,0,0,0,0,0,0,0,0,0,0,0,0,0,0,0,0,0,0,0,0,0,0,0,0,0,0,0,0,0,
0,0,0,0,0,0,0,0,0,0,0,0,0,0,0,0,0,0,0,0,0,0,0,0,0,0,0,0,0,0,0,0,0,0,0,0,0,0,0,0,0,0,0,0,0,0,0,0,0,0,0,0,0,0,0,0,
0,0,0,0,0,0,0,0,0,0,0,0,0,0,0,0,0,0,0,0,0,0,0,0,0,0,0,0,0,0,0,0,0,0,0,0,0,0,0,0,0,0,0,0,0,0,0,0,0,0,0,0,0,0,0,0,
0,0,0,0,0,0,0,0,0,0,0,0,0,0,0,0,0,0,0,0,0,0,0,0,0,0,0,0,0,0,0,0,0,0,0,0,0,0,0,0,0,0,0,0,0,0,0,0,0,0,0,0,0,0,0,0,
0,0,0,0,0,0,0,0,0,0,0,0,0,0,0,0,0,0,0,0,0,0,0,0,0,0,0,0,0,0,0,0,0,0,0,0,0,0,0,0,0,0,0,0,0,0,0,0,0,0,0,0,0,0,0,0,
0,0,0,0,0,0,0,0,0,0,0,0,0,0,0,0,0,0,0,0,0,0,0,0,0,0,0,0,0,0,0,0,0,0,0,0,0,0,0,0,0,0,0,0,0,0,0,0,0,0,0,0,0,0,0,0,
0,0,0,0,0,0,0,0,0,0,0,0,0,0,0,0,0,0,0,0,0,0,0,0,0,0,0,0,0,0,0,0,0,0,0,0,0,0,0,0,0,0,0,0,0,0,0,0,0,0,0,0,0,0,0,0,
0,0,0,0,0,0,0,0,0,0,0,0,0,0,0,0,0,0,0,0,0,0,0,0,0,0,0,0,0,0,0,0,0,0,0,0,0,0,0,0,0,0,0,0,0,0,0,0,0,0,0,0,0,0,0,0,
0,0,0,0,0,0,0,0,0,0,0,0,0,0,0,0,0,0,0,0,0,0,0,0,0,0,0,0,0,0,0,0,0,0,0,0,0,0,0,0,0,0,0,0,0,0,0,0,0,0,0,0,0,0,0,0,
0,0,0,0,0,0,0,0,0,0,0,0,0,0,0,0,0,0,0,0,0,0,0,0,0,0,0,0,0,0,0,0,0,0,0,0,0,0,0,0,0,0,0,0,0,0,0,0,0,0,0,0,0,0,0,0,
0,0,0,0,0,0,0,0,0,0,0,0,0,0,0,0,0,0,0,0,0,0,0,0,0,0,0,0,0,0,0,0,0,0,0,0,0,0,0,0,0,0,0,0,0,0,0,0,0,0,0,0,0,0,0,0,
0,0,0,0,0,0,0,0,0,0,0,0,0,0,0,0,0,0,0,0,0,0,0,0,0,0,0,0,0,0,0,0,0,0,0,0,0,0,0,0,0,0,0,0,0,0,0,0,0,0,0,0,0,0,0,0,
0,0,0,0,0,0,0,0,0,0,0,0,0,0,0,0,0,0,0,0,0,0,0,0,0,0,0,0,0,0,0,0,0,0,0,0,0,0,0,0,0,0,0,0,0,0,0,0,0,0,0,0,0,0,0,0,
0,0,0,0,0,0,0,0,0,0,0,0,0,0,0,0,0,0,0,0,0,0,0,0,0,0,0,0,0,0,0,0,0,0,0,0,0,0,0,0,0,0,0,0,0,0,0,0,0,0,0,0,0,0,0,0,
0,0,0,0,0,0,0,0,0,0,0,0,0,0,0,0,0,0,0,0,0,0,0,0,0,0,0,0,0,0,0,0,0,0,0,0,0,0,0,0,0,0,0,0,0,0,0,0,0,0,0,0,0,0,0,0,
0,0,0,0,0,0,0,0,0,0,0,0,0,0,0,0,0,0,0,0,0,0,0,0,0,0,0,0,0,0,0,0,0,0,0,0,0,0,0,0,0,0,0,0,0,0,0,0,0,0,0,0,0,0,0,0,
0,0,0,0,0,0,0,0,0,0,0,0,0,0,0,0,0,0,0,0,0,0,0,0,0,0,0,0,0,0,0,0,0,0,0,0,0,0,0,0,0,0,0,0,0,0,0,0,0,0,0,0,0,0,0,0,
0,0,0,0,0,0,0,0,0,0,0,0,0,0,0,0,0,0,0,0,0,0,0,0,0,0,0,0,0,0,0,0,0,0,0,0,0,0,0,0,0,0,0,0,0,0,0,0,0,0,0,0,0,0,0,0,
0,0,0,0,0,0,0,0,0,0,0,0,0,0,0,0,0,0,0,0,0,0,0,0,0,0,0,0,0,0,0,0,0,0,0,0,0,0,0,0,0,0,0,0,0,0,0,0,0,0,0,0,0,0,0,0,
0,0,0,0,0,0,0,0,0,0,0,0,0,0,0,0,0,0,0,0,0,0,0,0,0,0,0,0,0,0,0,0,0,0,0,0,0,0,0,0,0,0,0,0,0,0,0,0,0,0,0,0,0,0,0,0,
0,0,0,0,0,0,0,0,0,0,0,0,0,0,0,0,0,0,0,0,0,0,0,0,0,0,0,0,0,0,0,0,0,0,0,0,0,0,0,0,0,0,0,0,0,0,0,0,0,0,0,0,0,0,0,0,
0,0,0,0,0,0,0,0,0,0,0,0,0,0,0,0,0,0,0,0,0,0,0,0,0,0,0,0,0,0,0,0,0,0,0,0,0,0,0,0,0,0,0,0,0,0,0,0,0,0,0,0,0,0,0,0,
0,0,0,0,0,0,0,0,0,0,0,0,0,0,0,0,0,0,0,0,0,0,0,0,0,0,0,0,0,0,0,0,0,0,0,0,0,0,0,0,0,0,0,0,0,0,0,0,0,0,0,0,0,0,0,0,
0,0,0,0,0,0,0,0,0,0,0,0,0,0,0,0,0,0,0,0,0,0,0,0,0,0,0,0,0,0,0,0,0,0,0,0,0,0,0,0,0,0,0,0,0,0,0,0,0,0,0,0,0,0,0,0,
0,0,0,0,0,0,0,0,0,0,0,0,0,0,0,0,0,0,0,0,0,0,0,0,0,0,0,0,0,0,0,0,0,0,0,0,0,0,0,0,0,0,0,0,0,0,0,0,0,0,0,0,0,0,0,0,
0,0,0,0,0,0,0,0,0,0,0,0,0,0,0,0,0,0,0,0,0,0,0,0,0,0,0,0,0,0,0,0,0,0,0,0,0,0,0,0,0,0,0,0,0,0,0,0,0,0,0,0,0,0,0,0,
0,0,0,0,0,0,0,0,0,0,0,0,0,0,0,0,0,0,0,0,0,0,0,0,0,0,0,0,0,0,0,0,0,0,0,0,0,0,0,0,0,0,0,0,0,0,0,0,0,0,0,0,0,0,0,0
</data>
 </layer>
 <objectgroup id="4" name="Collision"/>
</map>
