<?xml version="1.0" encoding="UTF-8"?>
<map version="1.11" tiledversion="1.11.2" orientation="orthogonal" renderorder="right-down" width="56" height="40" tilewidth="16" tileheight="16" infinite="0" nextlayerid="4" nextobjectid="1">
 <tileset firstgid="1" source="TilesetFloor.tsx"/>
 <tileset firstgid="573" source="TilesetWater.tsx"/>
 <tileset firstgid="1049" source="TilesetElement.tsx"/>
 <tileset firstgid="1289" source="TilesetHouse.tsx"/>
 <tileset firstgid="2048" source="TilesetNature.tsx"/>
 <layer id="3" name="Ground" width="56" height="40">
  <data encoding="csv">
265,265,265,266,265,266,267,268,265,266,265,265,265,266,267,268,269,269,265,266,267,268,269,265,265,265,265,265,265,265,265,265,265,265,265,265,265,265,266,267,265,266,267,343,343,343,343,343,783,783,783,783,783,783,783,783,
265,265,265,266,265,266,267,268,265,266,267,268,269,265,265,265,265,265,265,266,267,268,269,266,267,268,269,269,266,267,268,269,269,269,269,269,269,269,269,265,266,267,343,343,343,343,343,343,783,783,783,783,783,783,783,783,
265,265,265,266,265,266,267,268,265,266,267,268,269,269,265,266,267,268,265,266,267,268,269,267,268,269,269,269,269,269,269,269,269,269,267,268,269,269,269,265,266,267,343,343,343,343,343,783,783,783,783,783,783,783,783,783,
265,265,265,266,265,266,267,268,265,265,265,265,265,265,265,265,265,265,266,267,268,269,266,267,268,269,269,267,268,269,265,266,267,268,269,269,269,269,265,266,267,268,343,343,343,343,783,783,783,783,783,783,783,783,783,783,
265,265,265,266,265,266,267,268,265,265,266,265,265,265,265,265,265,265,266,267,268,269,267,268,269,268,269,265,265,265,265,266,267,268,269,269,269,269,265,266,267,268,343,343,343,343,783,783,783,783,783,783,783,783,783,783,
265,265,265,266,265,266,267,268,265,265,265,265,265,265,265,265,265,266,267,268,269,269,267,268,269,268,269,269,269,265,266,267,268,269,269,265,266,265,266,267,268,269,343,343,343,894,783,783,783,783,783,783,783,783,783,783,
265,265,265,266,265,266,267,268,265,266,265,266,267,268,269,267,265,266,267,268,269,269,267,268,269,268,269,265,266,267,268,269,269,266,265,266,267,265,266,267,268,269,343,343,343,343,783,783,783,783,783,783,783,783,783,783,
265,265,265,266,265,266,267,268,265,266,265,266,267,268,269,265,266,267,268,269,268,269,267,268,269,268,269,266,267,268,269,265,266,265,266,267,265,266,267,268,269,265,343,343,343,343,783,783,783,783,783,783,783,783,783,783,
265,265,265,266,265,266,267,265,265,741,742,743,266,267,268,265,266,267,268,269,268,269,268,269,267,268,269,267,741,742,743,269,265,266,267,268,265,266,267,268,269,265,266,267,343,343,783,783,783,783,783,783,783,783,783,783,
265,265,265,265,265,266,267,265,266,769,770,771,265,266,267,265,266,267,268,269,269,269,268,269,267,268,269,269,769,770,771,269,265,266,267,268,265,266,267,268,269,265,266,343,343,343,783,783,783,783,783,783,783,783,783,783,
265,265,265,265,265,266,267,268,269,797,798,799,268,265,265,265,266,267,268,269,269,269,268,269,267,268,269,269,797,798,799,265,266,267,268,269,265,266,267,268,269,265,266,343,343,343,343,783,783,783,783,783,783,783,894,343,
265,266,265,266,265,266,267,268,269,265,265,265,265,265,265,265,266,267,268,269,269,269,269,266,267,268,269,266,267,268,269,265,266,267,268,265,266,267,268,269,267,265,266,343,343,343,343,343,343,783,783,783,343,343,343,343,
265,266,265,266,265,266,267,265,265,265,266,267,268,269,265,265,266,267,268,269,268,269,269,265,266,267,268,269,269,269,265,266,267,268,269,265,266,267,268,269,268,265,266,267,343,343,343,343,343,343,343,343,343,343,343,343,
265,266,265,266,265,266,267,268,269,265,266,267,268,265,265,266,267,268,269,269,268,269,268,269,269,265,266,267,268,265,265,266,267,268,269,265,266,267,268,741,742,743,266,343,343,343,343,343,343,343,343,343,343,266,267,343,
265,266,265,266,265,266,267,268,265,266,267,268,269,265,265,266,267,268,269,269,268,269,267,268,269,269,269,269,265,265,266,267,268,269,265,266,267,268,269,769,770,771,266,343,343,343,343,343,343,266,267,343,343,343,343,343,
265,266,265,266,265,266,267,268,265,266,267,268,269,268,265,266,267,268,269,269,269,269,269,269,640,640,640,640,265,265,266,267,268,269,741,742,743,268,269,797,798,799,266,267,343,343,343,343,343,343,267,343,343,343,343,343,
265,266,265,265,265,265,266,267,265,266,265,266,267,265,266,267,268,269,269,268,269,265,265,640,640,640,640,640,640,266,267,268,269,267,769,770,771,268,269,269,268,265,266,267,268,265,265,265,265,266,267,267,268,269,269,268,
265,265,266,265,265,265,265,265,265,265,265,265,265,265,266,267,268,269,265,265,265,265,265,640,640,640,640,640,640,266,267,268,269,268,797,798,799,268,269,269,269,265,266,267,268,265,265,265,265,266,267,267,268,269,268,269,
265,265,265,265,266,265,266,267,265,266,267,268,269,265,266,267,268,269,268,269,269,265,265,640,640,597,640,640,640,266,267,268,269,265,266,267,268,269,268,269,269,265,266,267,265,265,265,265,265,266,267,268,269,269,268,269,
265,265,265,265,265,266,267,268,265,266,267,268,265,266,267,268,269,269,268,269,265,265,266,640,640,640,640,640,640,267,268,269,268,265,266,267,268,269,268,269,269,265,266,267,265,266,265,265,266,267,268,269,268,269,268,269,
265,265,265,265,265,266,267,268,265,266,267,268,265,266,267,268,269,268,269,265,265,266,267,268,640,640,640,640,266,267,268,269,268,265,266,267,268,269,268,269,269,265,266,267,265,266,265,266,267,268,269,267,268,269,268,269,
265,265,265,265,265,266,267,265,266,267,268,265,266,267,268,269,269,268,269,265,266,267,268,269,269,267,265,266,267,268,269,267,268,265,266,267,268,269,741,742,743,266,267,268,265,266,265,266,267,268,269,268,269,267,268,269,
265,265,265,265,265,266,267,265,266,267,268,265,266,267,268,269,268,269,265,265,265,265,266,267,268,269,265,266,267,268,269,267,265,265,266,267,268,269,769,770,771,266,267,268,265,266,265,266,267,268,269,268,269,267,268,269,
265,265,265,265,265,266,267,265,266,267,265,266,267,268,269,267,268,269,265,266,265,266,267,268,269,269,266,267,268,269,267,265,265,265,266,267,268,269,797,798,799,266,267,268,265,741,742,743,267,268,269,268,269,267,268,269,
265,265,265,265,266,267,268,265,266,267,265,266,267,268,269,268,269,265,266,265,265,266,267,268,269,269,267,268,269,269,265,266,265,741,742,743,268,269,269,269,265,266,267,268,265,769,770,771,267,268,269,269,266,267,268,269,
265,265,265,265,265,266,267,265,266,267,265,266,267,268,269,268,269,266,265,265,266,267,268,269,269,267,268,269,267,268,269,267,265,769,770,771,268,269,269,265,265,266,267,268,265,797,798,799,267,268,269,269,266,267,268,269,
265,265,266,265,265,266,265,265,266,265,266,267,268,269,268,269,265,266,267,265,266,267,268,269,269,268,269,266,267,268,269,265,266,797,798,799,268,269,269,265,266,267,268,269,265,265,265,266,267,268,269,269,266,267,268,269,
265,265,266,265,265,266,265,265,266,265,266,267,268,269,268,269,266,267,265,266,267,268,269,268,269,269,265,266,267,268,269,265,266,265,266,267,268,269,269,265,266,267,268,269,265,265,265,266,267,268,269,269,266,267,268,269,
741,742,743,265,265,266,265,266,267,265,266,267,268,269,269,267,265,266,265,266,267,268,269,268,269,266,267,265,266,267,268,269,266,265,266,267,268,269,269,265,266,267,268,269,265,265,265,266,267,268,269,265,266,267,268,269,
769,770,771,265,265,266,265,266,267,265,741,742,743,269,269,265,266,265,266,267,268,269,268,269,265,266,267,265,266,267,268,269,267,265,266,267,268,269,265,265,266,265,266,267,268,269,265,266,267,268,269,265,266,267,268,269,
797,798,799,265,265,265,265,266,265,266,769,770,771,269,269,265,266,265,265,265,266,267,268,269,266,267,265,265,741,742,743,269,267,265,266,267,268,269,265,266,267,265,266,267,268,269,266,265,266,267,268,269,266,267,268,269,
265,265,266,265,265,266,267,268,265,266,797,798,799,269,265,265,265,265,266,265,265,265,266,267,268,269,266,267,769,770,771,268,269,265,266,267,268,269,265,266,267,265,265,266,267,268,269,265,266,267,268,269,266,267,268,269,
265,265,266,265,265,266,267,265,265,266,267,265,266,265,266,265,265,266,265,266,267,265,265,266,267,268,269,268,797,798,799,268,269,265,266,267,268,269,265,266,267,265,265,265,266,267,268,265,266,267,268,269,266,267,268,269,
265,265,266,265,265,266,267,265,266,267,265,265,266,265,265,266,265,266,265,266,267,265,266,265,265,266,267,268,269,267,268,269,269,265,266,267,268,269,265,266,267,268,265,265,265,265,265,265,266,267,268,269,266,267,268,269,
265,265,266,265,265,266,267,265,266,267,265,265,265,266,265,265,266,265,266,267,265,266,267,268,265,265,266,267,268,269,268,269,266,265,265,266,267,268,269,267,268,269,265,266,267,268,265,265,266,267,268,269,266,267,268,269,
265,266,267,265,265,266,265,266,267,265,265,266,265,265,265,741,742,743,265,265,265,265,265,265,265,266,267,268,269,268,269,266,267,268,741,742,743,265,265,265,265,265,265,266,267,268,265,265,266,267,268,269,266,267,268,269,
265,265,266,267,265,266,265,266,267,265,265,265,266,267,268,769,770,771,269,269,269,269,269,269,269,265,265,265,265,265,265,265,265,265,769,770,771,265,266,267,268,269,265,266,265,265,266,265,266,267,268,269,266,267,268,269,
265,265,266,267,265,266,265,266,265,265,265,265,265,265,265,797,798,799,266,267,268,269,269,269,269,269,269,269,269,269,269,269,269,269,797,798,799,265,266,267,268,269,265,265,265,265,266,267,268,269,266,267,268,269,265,266,
265,265,266,267,265,266,265,265,265,265,265,265,265,265,266,267,268,269,269,269,269,269,265,266,267,268,269,269,269,269,265,265,265,266,267,268,265,265,266,267,268,269,268,269,265,266,267,268,269,269,269,268,269,269,269,269,
265,265,266,267,265,265,265,265,266,267,265,265,265,265,265,265,265,265,265,265,265,265,265,265,265,265,265,265,266,267,268,269,269,269,268,265,265,266,267,268,269,269,269,269,265,266,267,268,269,269,268,269,269,269,269,269
</data>
 </layer>
 <layer id="2" name="Decoration" width="56" height="40">
  <data encoding="csv">
2096,2097,2098,2099,0,0,0,0,0,0,0,0,0,0,0,0,0,0,0,0,0,0,0,0,0,0,0,0,0,0,0,0,0,0,0,0,0,0,0,0,0,0,0,2052,2053,0,0,0,0,0,0,0,0,0,0,0,
2120,2121,2122,2123,2050,2051,0,0,0,0,0,0,0,0,0,0,0,0,0,0,0,0,0,0,0,0,0,0,0,0,0,0,0,0,0,0,0,0,0,0,0,0,0,2076,2077,0,0,0,0,0,0,0,0,0,0,0,
2144,2145,2146,2147,2074,2075,1629,1629,1630,1631,1629,1629,1630,1631,1630,1631,1630,1631,1629,1630,1631,1629,1630,1631,1629,1630,1631,1632,0,0,0,0,0,0,0,0,0,0,0,2483,2484,2485,0,0,0,0,0,0,0,0,0,0,0,0,0,0,
2096,2097,2098,2099,0,1661,0,0,0,0,0,0,0,1853,1854,0,0,0,0,0,0,2483,2484,2485,0,0,0,1661,0,0,0,0,0,2483,2484,2485,0,0,0,2507,2508,2509,0,0,0,1944,0,0,0,0,0,0,0,0,0,0,
2120,2121,2122,2123,0,1661,0,0,0,0,0,0,0,1886,1887,0,0,0,0,0,0,2507,2508,2509,0,0,0,1661,0,0,0,0,0,2507,2508,2509,0,0,0,2531,2532,2533,1917,1918,0,1977,0,0,0,0,0,0,0,0,0,0,
2144,2145,2146,2147,0,1661,2483,2484,2485,0,0,0,1297,1298,1299,1300,0,0,0,0,0,2531,2532,2533,0,0,0,1661,0,0,0,0,0,2531,2532,2533,0,0,0,0,0,0,1950,1951,0,2010,0,0,0,0,0,0,0,0,0,0,
0,0,0,0,0,1661,2507,2508,2509,0,0,0,1330,1331,1332,1333,0,0,0,0,0,0,0,0,0,0,0,1661,0,0,0,0,0,0,0,0,0,0,0,0,0,0,1983,1984,0,0,0,0,0,0,0,1064,0,0,0,0,
0,0,0,0,0,1661,2531,2532,2533,0,0,0,1363,1361,1365,1366,0,0,0,2483,2484,2485,0,0,0,0,0,1661,0,0,0,0,0,0,0,0,0,0,0,0,0,0,0,0,0,0,0,0,0,0,0,0,0,0,0,0,
0,0,0,0,0,1661,0,0,0,0,0,0,1359,1361,1361,1362,0,0,0,2507,2508,2509,0,1305,1306,1307,0,1661,0,0,0,0,0,0,0,0,0,0,0,0,0,0,0,2052,2053,0,0,0,0,0,0,0,0,0,1944,0,
0,0,0,0,0,1661,0,0,0,0,0,0,1359,1361,1361,1362,0,0,0,2531,2532,2533,0,1338,1339,1340,0,1661,0,0,0,0,0,0,2483,2484,2485,0,0,0,0,0,0,2076,2077,0,0,0,0,0,0,0,0,0,1977,0,
0,0,0,0,0,1661,0,0,0,0,0,0,1359,1360,1361,1362,0,0,0,0,0,0,0,1371,1372,1373,0,1661,0,0,0,0,0,0,2507,2508,2509,0,0,0,0,0,0,1917,1918,0,0,0,0,0,0,0,0,0,2010,0,
0,0,0,0,0,1661,0,0,0,0,0,0,0,0,0,0,0,0,0,0,0,0,0,1454,1455,1456,0,1661,0,0,0,0,0,0,2531,2532,2533,0,0,0,0,0,0,1950,1951,0,0,0,0,0,0,0,0,0,0,0,
0,0,0,0,0,1661,0,0,0,0,0,0,0,0,0,0,0,0,0,0,0,0,0,1487,1488,1489,0,1661,0,0,0,0,0,0,0,0,0,0,0,0,0,0,0,1983,1984,0,2052,2053,0,0,0,0,0,1917,1918,0,
0,0,0,0,0,1661,0,0,1301,1302,1302,1302,1303,1302,1303,1303,1303,1303,1303,1304,0,0,0,0,0,0,0,1661,0,0,0,0,0,0,0,0,0,0,0,0,0,0,0,0,0,0,2076,2077,0,1917,1918,2052,2053,1950,1951,0,
0,0,0,0,0,1661,0,0,1334,1336,1336,1336,1336,1335,1336,1336,1336,1336,1336,1337,0,0,0,0,0,0,0,1694,1632,0,0,0,0,0,0,0,0,0,0,0,0,0,0,0,0,0,0,0,0,1950,1951,2076,2077,1983,1984,0,
0,0,0,0,0,1661,0,0,1367,1369,1369,1369,1369,1368,1369,1369,1369,1369,1369,1370,0,0,0,0,0,0,0,0,1694,1632,0,0,0,0,0,0,0,0,0,0,0,0,0,0,0,0,0,0,0,1983,1984,0,0,0,0,0,
0,0,0,0,0,1661,2483,2484,2485,0,0,0,0,0,0,0,0,0,0,2483,2484,2485,0,0,0,0,0,0,0,1665,0,0,0,0,0,0,0,0,0,0,0,2483,2484,2485,0,0,0,0,0,0,0,0,0,0,0,0,
0,0,0,0,0,1661,2507,2508,2509,0,0,0,0,0,0,0,0,0,0,2507,2508,2509,0,0,0,0,0,0,0,1665,0,0,0,0,0,0,0,0,0,0,0,2507,2508,2509,0,0,0,0,0,0,0,0,0,0,0,0,
0,0,0,0,0,1661,2531,2532,2533,0,0,0,0,0,0,0,0,0,0,2531,2532,2533,0,0,0,0,0,0,0,1665,0,0,0,0,0,0,0,0,0,0,0,2531,2532,2533,0,0,0,0,0,0,0,0,0,0,0,0,
0,0,0,0,0,1661,0,0,0,0,0,0,0,0,0,0,0,0,0,0,0,0,0,0,0,0,0,0,0,1665,0,0,0,0,0,0,0,0,0,0,0,0,0,0,0,0,0,0,0,0,0,0,0,0,0,0,
0,0,0,0,0,1661,0,0,0,0,0,0,0,0,0,0,1662,1663,1664,0,0,0,0,0,0,0,0,0,1628,1698,0,0,0,0,0,0,0,0,0,0,0,0,0,0,0,0,0,0,0,0,0,0,0,0,0,0,
0,0,0,0,0,1694,1629,1630,1631,1631,1629,1630,1631,1629,1630,1631,1695,1696,1697,1629,1630,1631,1629,1630,1631,1629,1630,1631,1698,0,0,0,0,0,0,0,0,0,0,0,0,0,0,0,0,0,0,0,0,0,0,0,0,0,0,0,
0,0,0,0,0,0,0,0,0,0,0,0,0,0,0,0,0,0,0,0,0,0,0,0,0,0,0,0,0,0,0,0,0,0,0,0,0,0,0,0,0,0,0,0,0,0,0,0,0,0,0,0,0,0,0,0,
0,0,0,0,0,0,0,0,0,0,0,0,0,0,0,0,0,0,0,0,0,0,0,0,0,0,0,0,0,0,0,0,0,0,0,0,0,0,0,0,0,0,0,0,0,0,0,0,0,0,0,0,0,0,0,0,
0,0,2483,2484,2485,0,0,0,0,0,0,0,0,0,0,0,0,0,0,0,0,0,0,0,0,0,0,0,2483,2484,2485,0,0,0,0,0,0,0,0,0,0,0,0,0,0,0,0,0,0,0,0,0,0,0,0,0,
0,0,2507,2508,2509,0,0,0,0,0,0,0,0,0,0,0,0,0,0,0,0,0,0,0,0,0,0,0,2507,2508,2509,0,0,0,0,0,0,0,0,0,0,0,0,0,0,0,0,0,0,0,0,2483,2484,2485,0,0,
0,0,2531,2532,2533,0,0,0,0,0,0,0,0,0,0,0,0,0,0,0,0,0,0,0,0,0,0,0,2531,2532,2533,0,0,0,0,0,0,0,0,0,0,0,0,0,0,0,0,0,0,0,0,2507,2508,2509,0,0,
0,0,0,0,0,0,0,0,0,0,0,0,0,0,0,0,0,0,0,0,0,0,0,0,0,0,0,0,0,0,0,0,0,0,0,0,0,0,0,0,0,0,0,0,0,0,0,0,0,0,0,2531,2532,2533,0,0,
0,0,0,0,0,0,0,0,0,0,0,0,0,0,0,0,0,0,0,0,0,0,0,0,0,0,0,0,0,0,0,0,0,0,0,0,0,0,0,0,0,0,0,0,0,0,0,0,0,0,0,0,0,0,0,0,
0,0,0,0,0,0,0,0,0,0,0,0,0,0,0,0,0,0,0,0,2483,2484,2485,0,0,0,0,0,0,0,0,0,0,0,0,0,0,0,0,0,0,0,0,0,0,0,0,0,0,0,0,0,0,0,0,0,
0,0,0,0,0,0,0,0,0,0,0,0,0,0,0,0,0,0,0,0,2507,2508,2509,0,0,0,0,0,0,0,0,0,0,0,0,0,0,0,0,0,0,0,0,0,0,0,0,0,0,0,0,0,0,0,0,0,
0,0,0,0,0,0,0,0,0,0,0,0,0,0,0,0,0,0,0,0,2531,2532,2533,0,0,0,0,0,0,0,0,0,0,0,0,0,0,0,0,0,0,0,0,0,0,0,0,0,0,0,0,0,0,0,0,0,
0,0,1126,1127,1128,0,0,0,0,0,0,0,0,0,0,0,0,0,0,0,0,0,0,0,0,0,0,0,0,0,0,0,0,0,0,2483,2484,2485,0,0,0,0,0,0,2483,2484,2485,0,0,0,0,0,0,0,0,0,
1126,1127,1142,1143,1144,0,0,0,0,0,0,0,0,0,0,0,0,0,0,0,0,0,0,0,0,0,0,0,0,0,0,0,0,0,0,2507,2508,2509,0,0,0,0,0,0,2507,2508,2509,0,0,0,0,0,0,0,0,0,
1142,1126,1158,1159,1160,2483,2484,2485,0,0,0,0,0,0,0,0,0,0,0,0,0,2483,2484,2485,0,0,0,0,0,0,0,0,0,0,0,2531,2532,2533,0,0,0,0,0,0,2531,2532,2533,0,0,0,0,0,2483,2484,2485,0,
1158,1142,1126,1127,1128,2507,2508,2509,0,0,0,0,0,0,0,0,0,0,0,0,0,2507,2508,2509,0,0,0,0,0,0,0,0,0,0,0,0,0,0,0,0,0,0,0,0,0,0,0,0,0,0,0,0,2507,2508,2509,0,
1142,1158,1142,1143,1144,2531,2532,2533,0,0,0,0,0,0,0,0,0,0,0,0,0,2531,2532,2533,0,0,0,0,0,0,0,0,0,0,0,0,0,0,0,0,0,0,0,0,2483,2484,2485,0,0,0,0,0,2531,2532,2533,0,
1158,1159,1126,1127,1128,0,0,0,0,0,0,0,0,0,0,0,0,0,0,0,0,0,0,0,0,0,0,0,0,0,0,0,0,0,0,0,0,0,0,0,0,0,0,0,2507,2508,2509,0,0,0,0,0,0,0,0,0,
1142,1143,1142,1143,1144,0,0,0,0,0,0,0,0,0,0,0,0,0,0,0,0,0,0,0,0,0,0,0,0,0,0,0,0,0,0,0,0,0,0,0,0,0,0,0,2531,2532,2533,0,0,0,0,0,0,0,0,0,
1158,1159,1158,1159,1160,0,0,0,0,0,0,0,0,0,0,0,0,0,0,0,0,0,0,0,0,0,0,0,0,0,0,0,0,0,0,0,0,0,0,0,0,0,0,0,0,0,0,0,0,0,0,0,0,0,0,0
</data>
 </layer>
 <layer id="1" name="Above" width="56" height="40">
  <data encoding="csv">
0,0,0,0,0,0,0,0,0,0,0,0,2486,2487,2488,0,0,0,0,0,0,0,0,0,0,2486,2487,2488,0,0,0,0,0,0,0,0,2486,2487,2488,0,0,0,0,0,0,0,0,0,0,0,0,0,0,0,0,0,
0,0,0,0,0,0,0,0,0,0,0,0,2510,2511,2512,0,0,0,0,0,0,0,0,0,0,2510,2511,2512,0,0,0,0,0,0,0,0,2510,2511,2512,0,0,0,0,0,0,0,0,0,0,0,0,0,0,0,0,0,
0,0,0,0,0,0,0,0,0,0,0,0,0,0,0,0,0,0,0,0,0,0,0,0,0,0,0,0,0,2486,2487,2488,0,0,0,0,0,0,0,0,0,0,0,0,0,0,0,0,0,0,0,0,0,0,0,0,
0,0,0,0,0,0,0,0,0,0,0,0,0,0,0,0,0,0,0,0,0,0,0,0,0,0,0,0,0,2510,2511,2512,0,0,0,0,0,0,0,0,0,0,0,0,0,0,0,0,0,0,0,0,0,0,0,0,
0,0,0,0,0,0,0,0,0,0,0,0,0,0,0,0,0,0,0,0,0,0,0,0,0,0,0,0,0,0,0,0,0,0,0,0,0,0,0,0,0,0,0,0,0,0,0,0,0,0,0,0,0,0,0,0,
0,0,0,0,0,0,0,0,0,0,0,0,0,0,0,0,0,0,0,0,0,0,0,0,0,0,0,0,0,0,0,0,0,0,0,0,0,0,0,0,0,0,0,0,0,0,0,0,0,0,0,0,0,0,0,0,
0,0,0,0,0,0,0,0,0,0,0,0,0,0,0,0,0,0,0,0,0,0,0,0,0,0,0,0,0,0,0,0,0,0,0,0,0,0,0,0,0,0,0,0,0,0,0,0,0,0,0,0,0,0,0,0,
0,0,0,0,0,0,0,0,0,0,0,0,0,0,0,0,0,0,0,0,0,0,0,0,0,0,0,0,0,0,0,0,0,0,0,0,0,0,0,0,0,0,0,0,0,0,0,0,0,0,0,0,0,0,0,0,
0,0,0,0,0,0,0,0,0,0,0,0,0,0,0,0,0,0,0,0,0,0,0,0,0,0,0,0,0,0,0,0,0,0,0,0,0,0,0,0,0,0,0,0,0,0,0,0,0,0,0,0,0,0,0,0,
0,0,0,0,0,0,0,0,0,0,0,0,0,0,0,0,0,0,0,0,0,0,0,0,0,0,0,0,0,0,0,0,0,0,0,0,0,0,0,0,0,0,0,0,0,0,0,0,0,0,0,0,0,0,0,0,
0,0,0,0,0,0,0,0,0,0,0,0,0,0,0,0,0,0,0,0,0,0,0,0,0,0,0,0,0,0,0,0,0,0,0,0,0,0,0,0,0,0,0,0,0,0,0,0,0,0,0,0,0,0,0,0,
0,0,0,0,0,0,0,0,0,0,0,0,0,0,0,0,0,0,0,0,0,0,0,0,0,0,0,0,0,0,0,0,0,0,0,0,0,0,0,0,0,0,0,0,0,0,0,0,0,0,0,0,0,0,0,0,
0,0,0,0,0,0,0,0,0,0,0,0,0,0,0,0,0,0,0,0,0,0,0,0,0,0,0,0,0,0,0,0,0,0,0,0,0,0,0,0,0,0,0,0,0,0,0,0,0,0,0,0,0,0,0,0,
0,0,0,0,0,0,0,0,0,0,0,0,0,0,0,0,0,0,0,0,0,0,0,0,0,0,0,0,0,0,0,0,0,0,0,0,0,0,0,0,0,0,0,0,0,0,0,0,0,0,0,0,0,0,0,0,
0,0,0,0,0,0,0,0,0,0,0,0,0,0,0,0,0,0,0,0,0,0,0,0,0,0,0,0,0,0,0,0,0,0,0,0,0,0,0,0,0,0,0,0,0,0,0,0,0,0,0,0,0,0,0,0,
0,0,0,0,0,0,0,0,0,0,0,0,0,0,0,0,0,0,0,0,0,0,0,0,0,0,0,0,0,0,0,0,0,0,0,0,0,0,0,0,0,0,0,0,0,0,0,0,0,0,0,0,0,0,0,0,
0,0,0,0,0,0,0,0,0,0,0,0,0,0,0,0,0,0,0,0,0,0,0,0,0,0,0,0,0,0,0,0,0,0,0,0,0,0,0,0,0,0,0,0,0,0,0,0,0,0,0,0,0,0,0,0,
0,0,0,0,0,0,0,0,0,0,0,0,0,0,0,0,0,0,0,0,0,0,0,0,0,0,0,0,0,0,0,0,0,0,0,0,0,0,0,0,0,0,0,0,0,0,0,0,0,0,0,0,0,0,0,0,
0,0,0,0,0,0,0,0,0,0,0,0,0,0,0,0,0,0,0,0,0,0,0,0,0,0,0,0,0,0,0,0,0,0,0,0,0,0,0,0,0,0,0,0,0,0,0,0,0,0,0,0,0,0,0,0,
0,0,0,0,0,0,0,0,0,0,0,0,0,0,0,0,0,0,0,0,0,0,0,0,0,0,0,0,0,0,0,0,0,0,0,0,0,0,0,0,0,0,0,0,0,0,0,0,0,0,0,0,0,0,0,0,
0,0,0,0,0,0,0,0,0,0,0,0,0,0,0,0,0,0,0,0,0,0,0,0,0,0,0,0,0,0,0,0,0,0,0,0,0,0,0,0,0,0,0,0,0,0,0,0,0,0,0,0,0,0,0,0,
0,0,0,0,0,0,0,0,0,0,0,0,0,0,0,0,0,0,0,0,0,0,0,0,0,0,0,0,0,0,0,0,0,0,0,0,0,0,0,0,0,0,0,0,0,0,0,0,0,0,0,0,0,0,0,0,
0,0,0,0,0,0,0,0,0,0,0,0,0,0,0,0,0,0,0,0,0,0,0,0,0,0,0,0,0,0,0,0,0,0,0,0,0,0,0,0,0,0,0,0,0,0,0,0,0,0,0,0,0,0,0,0,
0,0,0,0,0,0,0,0,0,0,0,0,0,0,0,0,0,0,0,0,0,0,0,0,0,0,0,0,0,0,0,0,0,0,0,0,0,0,0,0,0,0,0,0,0,0,0,0,0,0,0,0,0,0,0,0,
0,0,0,0,0,0,0,0,0,0,0,0,0,0,0,0,0,0,0,0,0,0,0,0,0,0,0,0,0,0,0,0,0,0,0,0,0,0,0,0,0,0,0,0,0,0,0,0,0,0,0,0,0,0,0,0,
0,0,0,0,0,0,0,0,0,0,0,0,0,0,0,0,0,0,0,0,0,0,0,0,0,0,0,0,0,0,0,0,0,0,0,0,0,0,0,0,0,0,0,0,0,0,0,0,0,0,0,0,0,0,0,0,
0,0,0,0,0,0,0,0,0,0,0,0,0,0,0,0,0,0,0,0,0,0,0,0,0,0,0,0,0,0,0,0,0,0,0,0,0,0,0,0,0,0,0,0,0,0,0,0,0,0,0,0,0,0,0,0,
0,0,0,0,0,0,0,0,0,0,0,0,0,0,0,0,0,0,0,0,0,0,0,0,0,0,0,0,0,0,0,0,0,0,0,0,0,0,0,0,0,0,0,0,0,0,0,0,0,0,0,0,0,0,0,0,
0,0,0,0,0,0,0,0,0,0,0,0,0,0,0,0,0,0,0,0,0,0,0,0,0,0,0,0,0,0,0,0,0,0,0,0,0,0,0,0,0,0,0,0,0,0,0,0,0,0,0,0,0,0,0,0,
0,0,0,0,0,0,0,0,0,0,0,0,0,0,0,0,0,0,0,0,0,0,0,0,0,0,0,0,0,0,0,0,0,0,0,0,0,0,0,0,0,0,0,0,0,0,0,0,0,0,0,0,0,0,0,0,
0,0,0,0,0,0,0,0,0,0,0,0,0,0,0,0,0,0,0,0,0,0,0,0,0,0,0,0,0,0,0,0,0,0,0,0,0,0,0,0,0,0,0,0,0,0,0,0,0,0,0,0,0,0,0,0,
0,0,0,0,0,0,0,0,0,0,0,0,0,0,0,0,0,0,0,0,0,0,0,0,0,0,0,0,0,0,0,0,0,0,0,0,0,0,0,0,0,0,0,0,0,0,0,0,0,0,0,0,0,0,0,0,
0,0,0,0,0,0,0,0,0,0,0,0,0,0,0,0,0,0,0,0,0,0,0,0,0,0,0,0,0,0,0,0,0,0,0,0,0,0,0,0,0,0,0,0,0,0,0,0,0,0,0,0,0,0,0,0,
0,0,0,0,0,0,0,0,0,0,0,0,0,0,0,0,0,0,0,0,0,0,0,0,0,0,0,0,0,0,0,0,0,0,0,0,0,0,0,0,0,0,0,0,0,0,0,0,0,0,0,0,0,0,0,0,
0,0,0,0,0,0,0,0,0,0,0,0,0,0,0,0,0,0,0,0,0,0,0,0,0,0,0,0,0,0,0,0,0,0,0,0,0,0,0,0,0,0,0,0,0,0,0,0,0,0,0,0,0,0,0,0,
0,0,0,0,0,0,0,0,0,0,0,0,0,0,0,0,0,0,0,0,0,0,0,0,0,0,0,0,0,0,0,0,0,0,0,0,0,0,0,0,0,0,0,0,0,0,0,0,0,0,0,0,0,0,0,0,
0,0,0,0,0,0,0,0,0,0,0,0,0,0,0,0,0,0,0,0,0,0,0,0,0,0,0,0,0,0,0,0,0,0,0,0,0,0,0,0,0,0,0,0,0,0,0,0,0,0,0,0,0,0,0,0,
0,0,0,0,0,0,0,0,0,0,0,0,0,0,0,0,0,0,0,0,0,0,0,0,0,0,0,0,0,0,0,0,0,0,0,0,0,0,0,0,0,0,0,0,0,0,0,0,0,0,0,0,0,0,0,0,
0,0,0,0,0,0,0,0,0,0,0,0,0,0,0,0,0,0,0,0,0,0,0,0,0,0,0,0,0,0,0,0,0,0,0,0,0,0,0,0,0,0,0,0,0,0,0,0,0,0,0,0,0,0,0,0,
0,0,0,0,0,0,0,0,0,0,0,0,0,0,0,0,0,0,0,0,0,0,0,0,0,0,0,0,0,0,0,0,0,0,0,0,0,0,0,0,0,0,0,0,0,0,0,0,0,0,0,0,0,0,0,0
</data>
 </layer>
</map>
